dist/svg/list-close.svg

<!-- Generated by Trend Micro Style Portal -->
<svg version="1.1" xmlns="http://www.w3.org/2000/svg" width="16" height="16" viewBox="0 0 16 16">
  <title>list-close</title>
  <path fill="rgb(34,34,34)" d="M14 1c0.6 0 1 0.4 1 1v12c0 0.6-0.4 1-1 1h-10c-0.6 0-1-0.4-1-1v-1h1v1h10v-12h-10v1h-1v-1c0-0.6 0.4-1 1-1h10zM12 5h-5v1h5v-1zM12 7.5h-7v1h7v-1zM12 10h-5v1h5v-1zM4.5 12.5l1-1-3.5-3.5 3.5-3.5-1-1-4.5 4.5 4.5 4.5z"></path>
</svg>

<svg width="16" height="16" viewBox="0 0 16 16" fill="rgb(34, 34, 34)" xmlns="http://www.w3.org/2000/svg"><title>list-close</title><path d="M14 1C14.6 1 15 1.4 15 2V14C15 14.6 14.6 15 14 15H4C3.4 15 3 14.6 3 14V13H4V14H14V2H4V3H3V2C3 1.4 3.4 1 4 1H14ZM12 5H7V6H12V5ZM12 7.5H5V8.5H12V7.5ZM12 10H7V11H12V10ZM4.5 12.5L5.5 11.5L2 8L5.5 4.5L4.5 3.5L0 8L4.5 12.5Z" fill="rgb(34, 34, 34)" fill-opacity="1.00"/></svg>
